X:3045
T:Canal en Octobre, Le
R:Scottische
C:Frédéric Paris, 1987
O:France
N:Work subject to copyright. With kind permission of Editions PARSIPARLA.
Z:Paul Hardy's Session Tunebook 2022 (see www.paulhardy.net). Arrangement Creative Commons cc by-nc-sa licenced.
M:4/4
L:1/8
Q:1/4=110
K:G
A2|"G"B2BB cBAG|"Em"B2BB cBAG|"C"EFGB "D"A2-AG|FGEF "G"D4|
B2BB cBAG|"Em"B2BB cBAG|"C"EFGB "D"A2 AF|"G"G6:|
|:(3ABc|"G"d2dd cBAG|"Em"d2dd cBAG|"C"EFGB "D"A2-AG|FGEF "G"D4|
d2dd cBAG|"Em"d2dd cBAG|"C"EFGB "D"A2AF|"G"G6:|

